src/assets/icons/sax/IconDojo.svg

<svg width="20" height="20" viewBox="0 0 24 24" fill="none" xmlns="http://www.w3.org/2000/svg">
<path d="M14.6667 8H9.33333C8.26667 8 8 8.88889 8 9.33333V14.6667C8 15.7333 8.88889 16 9.33333 16H14.6667C15.7333 16 16 15.1111 16 14.6667V9.33333C16 8.26667 15.1111 8 14.6667 8Z" stroke="currentColor" stroke-width="1.5" stroke-linecap="round"/>
<path d="M2 2.00004C2 2.00004 18.25 2.00008 19.5 2.00004C20.75 2 22 3.25 22 4.50004C22 5.75008 22 18.2501 22 19.5C22 20.75 20.75 22 19.5 22C18.25 22 5.75 22 4.5 22C3.25 22 2 20.75 2 19.5C2 18.2501 2 12.8334 2 10.75" stroke="currentColor" stroke-width="1.5" stroke-linecap="round"/>
</svg>

<svg xmlns="http://www.w3.org/2000/svg" width="20" height="20" fill="none" viewBox="0 0 24 24">
  <path stroke="currentcolor" stroke-linecap="round" stroke-width="1.5" d="M14.67 8H9.33C8.27 8 8 8.89 8 9.33v5.34C8 15.73 8.89 16 9.33 16h5.34c1.06 0 1.33-.89 1.33-1.33V9.33C16 8.27 15.11 8 14.67 8Z"/>
  <path stroke="currentcolor" stroke-linecap="round" stroke-width="1.5" d="M2 2h17.5C20.75 2 22 3.25 22 4.5v15c0 1.25-1.25 2.5-2.5 2.5h-15A2.7 2.7 0 0 1 2 19.5v-8.75"/>
</svg>
